packages/kaspersky-hexa-ui-icons/src/iconsSVGs/16/PetsProfile.svg

<svg width="16" height="16" viewBox="0 0 16 16" fill="none" xmlns="http://www.w3.org/2000/svg">
<path fill-rule="evenodd" clip-rule="evenodd" d="M6.25165 8.34598C7.00758 6.91981 8.99191 6.91967 9.74774 8.34598L10.0641 8.94462C10.2097 9.21952 10.3909 9.47093 10.6013 9.69169L11.0056 10.1155C11.686 10.8295 11.7142 11.7925 11.3542 12.5091C10.9924 13.2286 10.1949 13.7755 9.21258 13.5823L8.58172 13.4583C8.19755 13.3827 7.80282 13.3828 7.41864 13.4583L6.7868 13.5823C5.80439 13.7756 5.00697 13.2287 4.6452 12.5091C4.28516 11.7925 4.31338 10.8295 4.99383 10.1155L5.39813 9.69169C5.60844 9.47098 5.78972 9.21943 5.93524 8.94462L6.25165 8.34598ZM8.5993 8.95438C8.33186 8.44998 7.66762 8.45011 7.40008 8.95438L7.08368 9.55302C6.88315 9.93167 6.63203 10.2802 6.33856 10.5882L5.93524 11.012C5.68254 11.2771 5.66028 11.6324 5.80731 11.9251C5.95294 12.2147 6.2208 12.3688 6.53583 12.3069L7.16766 12.1829C7.71744 12.0748 8.28195 12.0748 8.83172 12.1829L9.46356 12.3069C9.77853 12.3688 10.0465 12.2147 10.1921 11.9251C10.339 11.6325 10.3168 11.2771 10.0641 11.012L9.66083 10.5882C9.36724 10.2801 9.1163 9.93179 8.91571 9.55302L8.5993 8.95438Z" fill="black"/>
<path fill-rule="evenodd" clip-rule="evenodd" d="M2.12176 6.20829C3.17982 5.59751 4.43749 6.20428 5.01044 7.19657C5.58333 8.18886 5.48041 9.58169 4.42254 10.1927C3.36458 10.8035 2.10692 10.1965 1.53387 9.20438C0.960967 8.21207 1.0638 6.81923 2.12176 6.20829ZM3.88446 7.84696C3.54604 7.26081 3.01275 7.19501 2.77215 7.33329C2.53185 7.47203 2.32115 7.96734 2.65985 8.55399C2.99852 9.14042 3.53183 9.20535 3.77215 9.06669C4.01239 8.92787 4.22297 8.43345 3.88446 7.84696Z" fill="black"/>
<path fill-rule="evenodd" clip-rule="evenodd" d="M10.9899 7.19657C11.5629 6.20435 12.8206 5.59761 13.8786 6.20829C14.9364 6.81928 15.0394 8.21211 14.4665 9.20438C13.8935 10.1965 12.6358 10.8035 11.5778 10.1927C10.5199 9.58171 10.417 8.18887 10.9899 7.19657ZM13.2282 7.33329C12.9876 7.19497 12.4544 7.26075 12.1159 7.84696C11.7774 8.43341 11.988 8.9278 12.2282 9.06669C12.4686 9.20525 13.0019 9.14035 13.3405 8.55399C13.6792 7.96733 13.4685 7.47203 13.2282 7.33329Z" fill="black"/>
<path fill-rule="evenodd" clip-rule="evenodd" d="M5.39325 2.42118C5.98552 2.28444 6.54939 2.48949 6.96844 2.83915C7.38707 3.18865 7.69575 3.70454 7.83172 4.29325C7.96766 4.88203 7.91609 5.4811 7.69305 5.9788C7.4697 6.47681 7.05294 6.90846 6.46063 7.0452C5.86822 7.18189 5.30449 6.97611 4.88544 6.62626C4.46695 6.27675 4.15809 5.76172 4.02215 5.17313C3.88626 4.58436 3.93776 3.98526 4.16083 3.48759C4.38416 2.98954 4.80092 2.55795 5.39325 2.42118ZM5.68524 3.68778C5.57556 3.71327 5.44386 3.80457 5.34735 4.01981C5.25057 4.23582 5.21081 4.5421 5.28876 4.88016C5.36684 5.2184 5.53669 5.4774 5.71844 5.62919C5.89976 5.7805 6.05888 5.80394 6.16864 5.7786C6.27839 5.75319 6.41092 5.66207 6.50751 5.44657C6.6042 5.23057 6.64305 4.92416 6.56512 4.58622C6.487 4.248 6.3172 3.98894 6.13544 3.8372C5.95417 3.68599 5.79497 3.66245 5.68524 3.68778Z" fill="black"/>
<path fill-rule="evenodd" clip-rule="evenodd" d="M9.02997 2.83915C9.44898 2.48944 10.0129 2.28454 10.6052 2.42118C11.1975 2.55792 11.6142 2.98958 11.8376 3.48759C12.0607 3.98527 12.1122 4.58435 11.9763 5.17313C11.8403 5.76179 11.5315 6.27676 11.113 6.62626C10.6939 6.97615 10.1303 7.18199 9.53778 7.0452C8.94549 6.90843 8.52869 6.47682 8.30536 5.9788C8.08233 5.4811 8.03076 4.88201 8.16669 4.29325C8.30265 3.70451 8.61132 3.18866 9.02997 2.83915ZM10.3132 3.68778C10.2034 3.66247 10.0443 3.68589 9.86297 3.8372C9.6812 3.98895 9.51141 4.24799 9.43329 4.58622C9.35534 4.92426 9.39511 5.23057 9.49188 5.44657C9.58838 5.66186 9.72008 5.75309 9.82977 5.7786C9.93951 5.80394 10.0987 5.78041 10.28 5.62919C10.4617 5.47741 10.6316 5.21844 10.7097 4.88016C10.7876 4.54223 10.7487 4.23582 10.652 4.01981C10.5555 3.80446 10.4229 3.7132 10.3132 3.68778Z" fill="black"/>
</svg>

<svg xmlns="http://www.w3.org/2000/svg" width="16" height="16" fill="none" viewBox="0 0 16 16"><path fill="#000" fill-rule="evenodd" d="M5.3931 2.4212c.5923-.1368 1.1562.0683 1.5752.418.4186.3494.7273.8653.8633 1.454s.0844 1.1879-.1387 1.6856c-.2233.498-.64.9297-1.2324 1.0664s-1.1561-.069-1.5752-.419c-.4185-.3494-.7273-.8645-.8633-1.453-.1359-.5888-.0844-1.188.1387-1.6856.2233-.498.64-.9296 1.2324-1.0664m3.6368.418c.419-.3498.9829-.5547 1.5751-.418.5924.1367 1.0091.5684 1.2325 1.0664.223.4977.2745 1.0968.1386 1.6855s-.4447 1.1037-.8632 1.4532c-.4191.3499-.9827.5557-1.5753.4189-.5922-.1368-1.009-.5684-1.2324-1.0664-.223-.4977-.2746-1.0968-.1386-1.6855s.4446-1.1046.8632-1.4541m1.2832.8486c-.1098-.0253-.2689-.0019-.4503.1494-.1817.1518-.3515.4108-.4296.749-.078.338-.0382.6444.0586.8604.0965.2153.2282.3065.3379.332.1097.0253.2689.0018.4502-.1494.1817-.1518.3515-.4108.4296-.749.078-.338.0391-.6444-.0576-.8604-.0966-.2153-.2291-.3066-.3388-.332m-4.628 0c-.1097.0255-.2414.1168-.3379.332-.0968.216-.1365.5223-.0586.8604.0781.3382.248.5972.4297.749.1813.1513.3404.1747.4502.1494.1098-.0254.2423-.1165.3389-.332.0967-.216.1355-.5224.0576-.8604-.0781-.3382-.248-.5973-.4297-.749-.1813-.1512-.3404-.1747-.4502-.1494m-.6748 3.5088c-.573-.9923-1.8306-1.599-2.8887-.9883-1.058.611-1.1607 2.0038-.5878 2.996s1.8307 1.5992 2.8886.9884c1.0579-.611 1.1608-2.0038.588-2.9961m8.8682-.9883c-1.058-.6107-2.3157-.004-2.8887.9883s-.47 2.3851.5879 2.9961c1.058.6108 2.3156.0038 2.8887-.9883.5729-.9923.4699-2.3851-.5879-2.9961M12.1158 7.847c.3384-.5862.8717-.652 1.1123-.5137.2403.1387.451.634.1123 1.2207-.3386.5864-.8719.6512-1.1123.5127-.2402-.1389-.4508-.6333-.1123-1.2197M2.772 7.3333c.2406-.1383.774-.0725 1.1123.5137.3386.5865.128 1.0809-.1123 1.2197-.2403.1387-.7736.0737-1.1123-.5127-.3387-.5867-.128-1.082.1123-1.2207M6.2515 8.346a1.9632 1.9632 0 0 1 3.4961 0l.3164.5986c.1456.275.3267.5263.5371.7471l.4043.4238c.6805.714.7086 1.677.3487 2.3936-.3618.7195-1.1593 1.2664-2.1417 1.0732l-.6308-.124a3.01 3.01 0 0 0-1.163 0l-.632.124c-.9823.1933-1.7797-.3536-2.1415-1.0732-.36-.7165-.3319-1.6796.3486-2.3936l.4043-.4238a3.37 3.37 0 0 0 .5371-.747zm2.3477.6084c-.2675-.5044-.9317-.5043-1.1993 0l-.3163.5986a4.67 4.67 0 0 1-.7452 1.0352l-.4033.4238c-.2527.2651-.275.6204-.128.9131.1457.2896.4136.4437.7286.3818l.6318-.124a4.31 4.31 0 0 1 1.664 0l.632.124c.315.0619.5828-.0922.7285-.3818.1469-.2926.1247-.648-.128-.9131l-.4033-.4238a4.67 4.67 0 0 1-.7451-1.0352z"/></svg>
